X:19
T:Hyvaa Iltaa! (Good Evening) & Mansikka (Strawberries)
M:2/4
L:1/16
Q:1/4=80
S:arr. Eira Mattsson (Washington DC Finlandia Foundation) ~1976
R:jenkka
K:Em
|: "Em" BBBB e2B2 | BBBc B2E2 | "Am" AAAA A2GA | "B7" B2GF "Em" E4 :| !
|: "Em" B2e2 B2A2 | GAGF E2B,2 | E2FF "B7" G2F2 |
[1 "Em" EFGA "B7" B2B,2 :|[2 "Em" E4 E4 ||

